!! Dmitri Kabalevsky, From Five Sets of Variations, Opus 51 (for piano)
!! "Five Happy Variations on a Russian Folksong"
!! Variation 2.
!! Allegro
!! Tempo: quarter-note equals 144-160 beats per minute.
**kern	**kern
*M2/4	*M2/4
*F:	*F:
*M2/4	*M2/4
=1	=1
4A	2r
4c	.
=2	=2
2r	4f
.	4a
=3	=3
4g	8r
.	8b-'
4c	8a'
.	8g'
=4	=4
4f	8r
.	8a'
4c	8cc'
.	8ff'
=5	=5
4A	2r
4c	.
=6	=6
2r	4f
.	4a
=7	=7
4g	8r
.	8b-'
4c	8a'
.	8g'
=8	=8
4f	8r
.	8ff'
4F	8f'
.	8r
=9	=9
4A	4d 4f#
4B	4d 4g
=10	=10
8c'	8r
8r	{8e
8C'	8a
8r	8g
=11	=11
8A'	8f'}
8r	8a'
8F'	8cc'
8r	8r
=12	=12
4A	4d 4f#
4B	4d 4g
=13	=13
8c'	8r
8r	{8e
8C'	8a
8r	8g
=14	=14
{4G#	8f'}
.	8f'
8A}	8f'
8r	8r
==	==
*-	*-
